brandFactory_export/1.Light/Rayo _1Light.svg

<?xml version="1.0" encoding="UTF-8"?>
<svg width="24px" height="24px" viewBox="0 0 24 24" version="1.1" xmlns="http://www.w3.org/2000/svg" xmlns:xlink="http://www.w3.org/1999/xlink">
    <title>1.Light/Rayo _1Light</title>
    <g id="Symbols" stroke="none" stroke-width="1" fill="none" fill-rule="evenodd">
        <g id="1.Light/Rayo-_1Light" fill="#5CB615" fill-rule="nonzero">
            <path d="M9.10084034,21.0453782 L11.8806723,13.8655462 C11.9344538,13.7310924 11.9243697,13.5798319 11.8605042,13.4521008 C11.7932773,13.3243697 11.6789916,13.2302521 11.5411765,13.1966387 L6.45546218,11.9529412 L15.1378151,2.7394958 L12.4084034,9.58991597 C12.3546218,9.72436975 12.3613445,9.87563025 12.4285714,10.0067227 C12.492437,10.1378151 12.610084,10.2285714 12.7512605,10.2655462 L18.3142857,11.6201681 L9.10084034,21.0453782 Z M19.7495798,11.2 C19.6991597,11.0252101 19.5647059,10.8907563 19.389916,10.8504202 L13.5310924,9.42184874 L17.010084,0.692436975 C17.097479,0.470588235 17.0201681,0.21512605 16.8218487,0.0840336134 C16.6235294,-0.043697479 16.3647059,-0.0168067227 16.2,0.157983193 L5.14789916,11.8823529 C5.02689076,12.010084 4.98319328,12.1983193 5.0302521,12.3697479 C5.08067227,12.5411765 5.21512605,12.6756303 5.38655462,12.7159664 L10.7579832,14.0302521 L7.3092437,22.9310924 C7.22521008,23.1529412 7.30252101,23.405042 7.49747899,23.5327731 C7.58151261,23.5865546 7.67226891,23.6134454 7.76638655,23.6134454 C7.89411765,23.6134454 8.02184874,23.5630252 8.11596639,23.4655462 L19.6252101,11.687395 C19.7529412,11.5630252 19.8,11.3747899 19.7495798,11.2 L19.7495798,11.2 Z" id="Rayo-_1Light"></path>
        </g>
    </g>
</svg>

<svg width="24" height="24" viewBox="0 0 24 24" xmlns="http://www.w3.org/2000/svg"><path d="M9.1 21.045l2.78-7.18a.507.507 0 00-.02-.413.496.496 0 00-.319-.255l-5.086-1.244 8.683-9.214-2.73 6.85a.502.502 0 00.343.677l5.563 1.354-9.213 9.425zM19.75 11.2a.492.492 0 00-.36-.35L13.53 9.422l3.48-8.73a.507.507 0 00-.19-.608.487.487 0 00-.621.074L5.148 11.882a.515.515 0 00-.118.488c.05.171.185.306.357.346l5.371 1.314-3.449 8.901a.505.505 0 00.188.602.486.486 0 00.618-.067l11.51-11.779a.49.49 0 00.125-.487z" fill="#5CB615" fill-rule="nonzero"/></svg>
